(Projekt fanplate)
(Erstellt mit Estlcam Version 11 Build 11,237)
(Laufzeit ca. 00:02:20 Stunden)

(Benoetigte Werkzeuge:)
(Fraeser 3mm)

G90
M03 S24000
G00 Z5.0000


(Nr. 1: Ausschnitt 5)
G00 X8.8970 Y8.8970
G00 Z0.5000
G01 Z0.0000 F600 S24000
G01 Z-1.0000
G02 X9.1208 Y9.7322 I0.3530 J0.3530 F1200
G02 X9.7322 Y9.1208 I0.1292 J-0.4822
G02 X8.8970 Y8.8970 I-0.4822 J0.1292
G01 Z-2.0000 F600
G02 X9.1208 Y9.7322 I0.3530 J0.3530 F1200
G02 X9.7322 Y9.1208 I0.1292 J-0.4822
G02 X8.8970 Y8.8970 I-0.4822 J0.1292
G01 Z-3.0000 F600
G02 X9.1208 Y9.7322 I0.3530 J0.3530 F1200
G02 X9.7322 Y9.1208 I0.1292 J-0.4822
G02 X8.8970 Y8.8970 I-0.4822 J0.1292
G01 Z-4.0000 F600
G02 X9.1208 Y9.7322 I0.3530 J0.3530 F1200
G02 X9.7322 Y9.1208 I0.1292 J-0.4822
G02 X8.8970 Y8.8970 I-0.4822 J0.1292
G00 Z5.0000


(Nr. 2: Ausschnitt 1)
G00 X19.1553 Y19.9393 Z5.0000
G00 Z0.5000
G01 Z0.0000 F600
G01 Z-1.0000
G02 X36.2191 Y79.9125 I25.8447 J25.0607 F1200
G02 X79.6256 Y35.1482 I8.7809 J-34.9125
G02 X19.1553 Y19.9393 I-34.6256 J9.8518
G01 Z-2.0000 F600
G02 X36.2191 Y79.9125 I25.8447 J25.0607 F1200
G02 X79.6256 Y35.1482 I8.7809 J-34.9125
G02 X19.1553 Y19.9393 I-34.6256 J9.8518
G01 Z-3.0000 F600
G02 X36.2191 Y79.9125 I25.8447 J25.0607 F1200
G02 X79.6256 Y35.1482 I8.7809 J-34.9125
G02 X19.1553 Y19.9393 I-34.6256 J9.8518
G01 Z-4.0000 F600
G02 X36.2191 Y79.9125 I25.8447 J25.0607 F1200
G02 X79.6256 Y35.1482 I8.7809 J-34.9125
G02 X19.1553 Y19.9393 I-34.6256 J9.8518
G00 Z5.0000


(Nr. 3: Ausschnitt 2)
G00 X9.1848 Y80.2551 Z5.0000
G00 Z0.5000
G01 Z0.0000 F600
G01 Z-1.0000
G02 X8.8540 Y81.0539 I0.0652 J0.4949 F1200
G02 X9.7112 Y80.9410 I0.3960 J-0.3039
G02 X9.1848 Y80.2551 I-0.4612 J-0.1910
G01 Z-2.0000 F600
G02 X8.8540 Y81.0539 I0.0652 J0.4949 F1200
G02 X9.7112 Y80.9410 I0.3960 J-0.3039
G02 X9.1848 Y80.2551 I-0.4612 J-0.1910
G01 Z-3.0000 F600
G02 X8.8540 Y81.0539 I0.0652 J0.4949 F1200
G02 X9.7112 Y80.9410 I0.3960 J-0.3039
G02 X9.1848 Y80.2551 I-0.4612 J-0.1910
G01 Z-4.0000 F600
G02 X8.8540 Y81.0539 I0.0652 J0.4949 F1200
G02 X9.7112 Y80.9410 I0.3960 J-0.3039
G02 X9.1848 Y80.2551 I-0.4612 J-0.1910
G00 Z5.0000


(Nr. 4: Ausschnitt 3)
G00 X80.3970 Y80.3970 Z5.0000
G00 Z0.5000
G01 Z0.0000 F600
G01 Z-1.0000
G02 X80.6208 Y81.2322 I0.3530 J0.3530 F1200
G02 X81.2322 Y80.6208 I0.1292 J-0.4822
G02 X80.3970 Y80.3970 I-0.4822 J0.1292
G01 Z-2.0000 F600
G02 X80.6208 Y81.2322 I0.3530 J0.3530 F1200
G02 X81.2322 Y80.6208 I0.1292 J-0.4822
G02 X80.3970 Y80.3970 I-0.4822 J0.1292
G01 Z-3.0000 F600
G02 X80.6208 Y81.2322 I0.3530 J0.3530 F1200
G02 X81.2322 Y80.6208 I0.1292 J-0.4822
G02 X80.3970 Y80.3970 I-0.4822 J0.1292
G01 Z-4.0000 F600
G02 X80.6208 Y81.2322 I0.3530 J0.3530 F1200
G02 X81.2322 Y80.6208 I0.1292 J-0.4822
G02 X80.3970 Y80.3970 I-0.4822 J0.1292
G00 Z5.0000


(Nr. 5: Ausschnitt 4)
G00 X80.2551 Y9.1848 Z5.0000
G00 Z0.5000
G01 Z0.0000 F600
G01 Z-1.0000
G02 X80.9410 Y9.7112 I0.4949 J0.0652 F1200
G02 X81.0539 Y8.8540 I-0.1910 J-0.4612
G02 X80.2551 Y9.1848 I-0.3039 J0.3960
G01 Z-2.0000 F600
G02 X80.9410 Y9.7112 I0.4949 J0.0652 F1200
G02 X81.0539 Y8.8540 I-0.1910 J-0.4612
G02 X80.2551 Y9.1848 I-0.3039 J0.3960
G01 Z-3.0000 F600
G02 X80.9410 Y9.7112 I0.4949 J0.0652 F1200
G02 X81.0539 Y8.8540 I-0.1910 J-0.4612
G02 X80.2551 Y9.1848 I-0.3039 J0.3960
G01 Z-4.0000 F600
G02 X80.9410 Y9.7112 I0.4949 J0.0652 F1200
G02 X81.0539 Y8.8540 I-0.1910 J-0.4612
G02 X80.2551 Y9.1848 I-0.3039 J0.3960
G00 Z5.0000


(Nr. 6: Teil 1)
G00 X0.4814 Y-0.2258 Z5.0000
G00 Z0.5000
G01 Z0.0000 F600
G01 Z-1.0000
G03 X3.9705 Y-1.5000 I3.5243 J4.2364 F1200
G01 X86.0295
G03 X91.5000 Y3.9705 I-0.0324 J5.5030
G01 Y86.0295
G03 X86.0295 Y91.5000 I-5.5030 J-0.0324
G01 X3.9705
G03 X-1.5000 Y86.0295 I0.0324 J-5.5030
G01 Y3.9705
G03 X0.4814 Y-0.2258 I5.5047 J0.0332
G01 Z-2.0000 F600
G03 X3.9705 Y-1.5000 I3.5243 J4.2364 F1200
G01 X86.0295
G03 X91.5000 Y3.9705 I-0.0324 J5.5030
G01 Y86.0295
G03 X86.0295 Y91.5000 I-5.5030 J-0.0324
G01 X3.9705
G03 X-1.5000 Y86.0295 I0.0324 J-5.5030
G01 Y3.9705
G03 X0.4814 Y-0.2258 I5.5047 J0.0332
G01 Z-3.0000 F600
G03 X3.9705 Y-1.5000 I3.5243 J4.2364 F1200
G01 X86.0295
G03 X91.5000 Y3.9705 I-0.0324 J5.5030
G01 Y86.0295
G03 X86.0295 Y91.5000 I-5.5030 J-0.0324
G01 X3.9705
G03 X-1.5000 Y86.0295 I0.0324 J-5.5030
G01 Y3.9705
G03 X0.4814 Y-0.2258 I5.5047 J0.0332
G01 Z-4.0000 F600
G03 X3.9705 Y-1.5000 I3.5243 J4.2364 F1200
G01 X86.0295
G03 X91.5000 Y3.9705 I-0.0324 J5.5030
G01 Y86.0295
G03 X86.0295 Y91.5000 I-5.5030 J-0.0324
G01 X3.9705
G03 X-1.5000 Y86.0295 I0.0324 J-5.5030
G01 Y3.9705
G03 X0.4814 Y-0.2258 I5.5047 J0.0332
G00 Z5.0000
G00 X0.0000 Y0.0000

M05
M30
