(Projekt fanhole_on_inclinded_surface_test_40mm)
(Erstellt mit Estlcam Version 11 Build 11,237)
(Laufzeit ca. 00:00:19 Stunden)

(Benoetigte Werkzeuge:)
(Fraeser 3mm)

G90
M03 S24000
G00 Z5.0000


(Nr. 1: Ausschnitt 1)
G00 X8.0410 Y5.5960
G00 Z0.5000
G01 Z0.0000 F600 S24000
G01 Z-2.0000
G01 X4.8730 Y8.8713 F400
G01 X2.6474 Y12.8017
G01 X1.5000 Y17.1405
G01 Y21.6178
G01 X2.6474 Y25.9565
G01 X4.8730 Y29.8869
G01 X8.0410 Y33.1622
G01 X11.9553 Y35.5739
G01 X16.3701 Y36.9666
G01 X21.0059 Y37.2498
G01 X25.5676 Y36.4050
G01 X29.7654 Y34.4872
G01 X33.3344 Y31.6206
G01 X36.0522 Y27.9889
G01 X37.7516 Y23.8217
G01 X38.3296 Y19.3791
G01 X37.7516 Y14.9366
G01 X36.0522 Y10.7693
G01 X33.3344 Y7.1376
G01 X29.7654 Y4.2711
G01 X25.5676 Y2.3533
G01 X21.0059 Y1.5084
G01 X16.3701 Y1.7916
G01 X11.9553 Y3.1843
G01 X8.0410 Y5.5960
G00 Z5.0000
G00 X0.0000 Y0.0000

M05
M30
