(Projekt fanhole_on_inclinded_surface)
(Erstellt mit Estlcam Version 11 Build 11,237)
(Laufzeit ca. 00:00:36 Stunden)

(Benoetigte Werkzeuge:)
(Fraeser 3mm)

G90
M03 S24000
G00 Z5.0000


(Nr. 1: Ausschnitt 1)
G00 X10.7044 Y12.9902
G00 Z0.5000
G01 Z0.0000 F600 S24000
G01 Z-2.0000
G01 X7.7274 Y16.6503 F400
G01 X5.2805 Y20.6611
G01 X3.4069 Y24.9509
G01 X2.1393 Y29.4435
G01 X1.5000 Y34.0590
G01 Y38.7157
G01 X2.1393 Y43.3312
G01 X3.4069 Y47.8238
G01 X5.2805 Y52.1136
G01 X7.7274 Y56.1244
G01 X10.7044 Y59.7845
G01 X14.1592 Y63.0283
G01 X18.0303 Y65.7974
G01 X22.2488 Y68.0419
G01 X26.7395 Y69.7211
G01 X31.4219 Y70.8045
G01 X36.2120 Y71.2723
G01 X41.0237 Y71.1161
G01 X45.7706 Y70.3388
G01 X50.3674 Y68.9543
G01 X54.7318 Y66.9880
G01 X58.7857 Y64.4755
G01 X62.4568 Y61.4622
G01 X65.6798 Y58.0025
G01 X68.3978 Y54.1585
G01 X70.5628 Y49.9989
G01 X72.1368 Y45.5979
G01 X73.0923 Y41.0338
G01 X73.4127 Y36.3873
G01 X73.0923 Y31.7409
G01 X72.1368 Y27.1768
G01 X70.5628 Y22.7758
G01 X68.3978 Y18.6162
G01 X65.6798 Y14.7722
G01 X62.4568 Y11.3125
G01 X58.7857 Y8.2992
G01 X54.7318 Y5.7867
G01 X50.3674 Y3.8204
G01 X45.7706 Y2.4359
G01 X41.0237 Y1.6586
G01 X36.2120 Y1.5024
G01 X31.4219 Y1.9702
G01 X26.7395 Y3.0536
G01 X22.2488 Y4.7328
G01 X18.0303 Y6.9773
G01 X14.1592 Y9.7464
G01 X10.7044 Y12.9902
G00 Z5.0000
G00 X0.0000 Y0.0000

M05
M30
